X: 11
T: Fred Finn's
Z: Erik-Fiddler
S: https://thesession.org/tunes/452#setting48898
R: reel
M: 4/4
L: 1/8
K: Cmaj
|:cA|GE ~E/E/E GAcd|e/f/g dB c2 Bc|AFDE FEFA|G/F/E cE dEcE|
GE ~E/E/E GAcd|e/f/g dB c2 Bc|AFFA GAce|gedg ec:|
|:cB|c2 gc acgc|cege dA B/c/d|eaag abag|eaag egdg|
ec ~(3c/B/c/c acgc|cege dBcA|GE ~E/E/E GAce|gedg ec:|

%-------------------- TUNE SEPARATOR --------------------%

